Papirus/64x64/apps/usb-creator.svg

<svg xmlns="http://www.w3.org/2000/svg" height="64" width="64" version="1">
 <path style="fill:#b7b7b7" d="m12 6h40v20h-40z"/>
 <rect style="fill:#5b5b5b" rx="2.8" ry="2.834" height="34" width="56" y="24" x="4"/>
 <g style="opacity:.4" transform="scale(2)">
  <rect y="16" width="16" x="8" height="2"/>
  <rect y="20" width="12" x="10" height="2"/>
  <rect y="24" width="8" x="12" height="2"/>
 </g>
 <path style="opacity:.2" d="m4 55.167969v1c0 1.57 1.2496033 2.832031 2.8007812 2.832031h50.398438c1.549978 0 2.800781-1.262031 2.800781-2.832031v-1c0 1.57-1.250803 2.832031-2.800781 2.832031h-50.398438c-1.5511777 0-2.800781-1.262031-2.800781-2.832031z"/>
 <path style="opacity:.2;fill:#ffffff" d="m12 6v1h40v-1h-40z"/>
 <circle style="opacity:.2" cx="48" r="16" cy="47"/>
 <circle style="fill:#3cd240" cx="48" r="16" cy="46"/>
 <path style="fill:#ffffff" d="m41 48.143 7 7.857 7-8.143h-4v-11.857h-6v12.1428z"/>
 <rect style="opacity:.5" height="6" width="10" y="10" x="16"/>
 <rect style="opacity:.5" height="6" width="10" y="10" x="38"/>
</svg>

<svg xmlns="http://www.w3.org/2000/svg" width="64" height="64" version="1">
 <path style="fill:#b7b7b7" d="m 12,6 40,0 0,20 -40,0 z"/>
 <rect style="fill:#5b5b5b" width="56" height="34" x="4" y="24" rx="2.8" ry="2.834"/>
 <g style="opacity:0.4" transform="scale(2,2)">
  <rect width="16" height="2" x="8" y="16"/>
  <rect width="12" height="2" x="10" y="20"/>
  <rect width="8" height="2" x="12" y="24"/>
 </g>
 <path style="opacity:0.2" d="m 4,55.167969 0,1 C 4,57.737969 5.2496033,59 6.8007812,59 L 57.199219,59 C 58.749197,59 60,57.737969 60,56.167969 l 0,-1 C 60,56.737969 58.749197,58 57.199219,58 L 6.8007812,58 C 5.2496033,58 4,56.737969 4,55.167969 Z"/>
 <path style="opacity:0.2;fill:#ffffff" d="M 12,6 12,7 52,7 52,6 12,6 Z"/>
 <circle style="opacity:0.2" cx="48" cy="47" r="16"/>
 <circle style="fill:#3cd240" cx="48" cy="46" r="16"/>
 <path style="fill:#ffffff" d="m 42,50.286 7,5.714 7,-6 -4,0 0,-14 -6,0 0,14.2858 z"/>
 <rect style="opacity:0.5" width="10" height="6" x="16" y="10"/>
 <rect style="opacity:0.5" width="10" height="6" x="38" y="10"/>
</svg>
